X: 1
T: Ringaren
R: Vossarull
M: 2/4
L: 1/16
Z: 1998 by John Chambers <jc@trillian.mit.edu>
N: Play A or D drone wherever possible.
K: D
|: f4 | e3c A2(AB) | A2d2 fefd | (dc)ec (cd)BG | FAd2 :| f4 | e3c A2fa | ^gba2 agaf |
|: a^gae f2fa | ^gba2 agaf :| a^gae f2ag | e^gf2 edce d4 ||
|: D2EG F2F2 | EDCE DCB,A, |1,3 D2EG FDFD | E^GEG [A2A2]-~[A2A2] :|2,4 D2EG FGAF | EDCE {D}[D4D] :|
